client/resources/iconsets/breeze/src/svg/16x16/icon_delete.svg

<svg xmlns="http://www.w3.org/2000/svg" width="16" height="16"><path d="M7 1C6 1 6 2 6 2H2S1 2 1 3v1h13V3c0-1-1-1-1-1H9s0-1-1-1H7zM2 5v9a1.08 1.08 0 0 0 1 1h9a1.08 1.08 0 0 0 1-1V5H2zm2 1h1v8H4V6zm3 0h1v8H7V6zm3 0h1v8h-1V6z" fill="#6d6d70"/></svg>

<svg xmlns="http://www.w3.org/2000/svg" width="16" height="16" viewBox="0 0 16 16">
 <path style="fill:#6d6d70"
       d="M 7 1 C 6 1 6 2 6 2 L 2 2 C 2 2 1 2 1 3 L 1 4 L 14 4 L 14 3 C 14 2 13 2 13 2 L 9 2 C 9 2 9 1 8 1 L 7 1 z M 2 5 L 2 14 C 2 14.5 2.5 15 3 15 L 12 15 C 12.5 15 13 14.5 13 14 L 13 5 L 2 5 z M 4 6 L 5 6 L 5 14 L 4 14 L 4 6 z M 7 6 L 8 6 L 8 14 L 7 14 L 7 6 z M 10 6 L 11 6 L 11 14 L 10 14 L 10 6 z "
       />
</svg>
